dist/images/arrow-size.svg

<svg width="24" height="24" viewBox="0 0 24 24" fill="none" xmlns="http://www.w3.org/2000/svg">
<path d="M16 0L19.0667 3.06667L15.2133 6.89333L17.1067 8.78667L20.9333 4.93333L24 8V0H16ZM0 8L3.06667 4.93333L6.89333 8.78667L8.78667 6.89333L4.93333 3.06667L8 0H0V8ZM8 24L4.93333 20.9333L8.78667 17.1067L6.89333 15.2133L3.06667 19.0667L0 16V24H8ZM24 16L20.9333 19.0667L17.1067 15.2133L15.2133 17.1067L19.0667 20.9333L16 24H24V16Z" fill="#0094FF"/>
</svg>

<svg width="24" height="24" fill="none" xmlns="http://www.w3.org/2000/svg"><path d="M16 0l3.067 3.067-3.854 3.826 1.894 1.894 3.826-3.854L24 8V0h-8zM0 8l3.067-3.067 3.826 3.854 1.894-1.894-3.854-3.826L8 0H0v8zm8 16l-3.067-3.067 3.854-3.826-1.894-1.894-3.826 3.854L0 16v8h8zm16-8l-3.067 3.067-3.826-3.854-1.894 1.894 3.854 3.826L16 24h8v-8z" fill="#0094FF"/></svg>
